src/assets/filled/Youtube.svg

<?xml version="1.0" encoding="UTF-8"?>
<svg width="24" height="24" viewBox="0 0 24 24" xmlns="http://www.w3.org/2000/svg">
 <path d="m17 4h-10c-3 0-5 2-5 5v6c0 3 2 5 5 5h10c3 0 5-2 5-5v-6c0-3-2-5-5-5zm-3.11 9.03-2.47 1.48c-1 0.6-1.82 0.14-1.82-1.03v-2.97c0-1.17 0.82002-1.63 1.82-1.03l2.47 1.48c0.95 0.58 0.95 1.5 0 2.07z"/>
</svg>

<svg width="24" height="24" viewBox="0 0 24 24"  xmlns="http://www.w3.org/2000/svg">
<path d="M17 4H7C4 4 2 6 2 9V15C2 18 4 20 7 20H17C20 20 22 18 22 15V9C22 6 20 4 17 4ZM13.89 13.03L11.42 14.51C10.42 15.11 9.59998 14.65 9.59998 13.48V10.51C9.59998 9.34001 10.42 8.88001 11.42 9.48001L13.89 10.96C14.84 11.54 14.84 12.46 13.89 13.03Z" />
</svg>
